X: 1
T: Hay-Makers, The
M: 6/8
L: 1/8
R: jig
K: Gmaj
D | G2 B A2 c | B2 G AFD | G2 B A2 c | BdB G2 :|
D | B2 d g2 d | e2 e dBG | B2 d g2 d | ede d2 :|
B | c2 e dBG | AGA B2 G | c2 e dBG | AGA G2 :|
